Suru++-Ubuntu/actions/symbolic/mail-drafts-symbolic-rtl.svg

<svg width="16" height="16" version="1.1" xmlns="http://www.w3.org/2000/svg">
 <g transform="translate(-1173 187)">
  <path transform="translate(1173,-187)" d="m4.9902344 10v1h3v-1h-3z" style="fill:#808080"/>
  <path transform="translate(1173,-187)" d="m5 8v1h6.011719v-1h-6.011719z" style="fill:#808080"/>
  <path transform="translate(1173,-187)" d="m5 6v1h6.011719v-1h-6.011719z" style="fill:#808080"/>
  <path transform="translate(1173,-187)" d="m 4.8769531,13.984375 v 0.998047 C 4.9254167,14.983137 4.949984,15.000144 5,15 l 6.12,-0.01758 V 13.98438 L 5,14 c -0.057558,1.47e-4 -0.068832,-0.01446 -0.1230469,-0.01563 z" style="fill:#808080"/>
  <path transform="translate(1173,-187)" d="m4.8769531 3.015625v-0.9980469c-0.5881425 0.0086809-1.0885608 0.0545924-1.4941406 0.2070313-0.439 0.164-0.7900469 0.4608906-0.9980469 0.8378906-0.415 0.752-0.3697656 1.6736406-0.3847656 2.9316406v5.0117184c0.015 1.258-0.0302344 2.178641 0.3847656 2.931641 0.208 0.376 0.5600469 0.672891 0.9980469 0.837891 0.4055798 0.151515 0.9059981 0.198355 1.4941406 0.207031v-0.998047c-0.5033899-0.010812-0.90876-0.056962-1.1425781-0.144531-0.26-0.098-0.3716563-0.202719-0.4726562-0.386719-0.202-0.366-0.2467188-1.194125-0.2617188-2.453125v-5c0.015-1.259 0.0597188-2.087125 0.2617188-2.453125 0.101-0.184 0.2126562-0.2897187 0.4726562-0.3867188 0.2347208-0.0884716 0.6393382-0.1338691 1.1425781-0.1445312z" style="fill:#808080"/>
  <path transform="translate(1173,-187)" d="m7.9921875 0a2.008 2.008 0 0 0-1.9921875 2h-1c-0.0500162 0-0.0745833 0.0168628-0.1230469 0.0175781v0.9980469c0.0541984-0.0011483 0.0654882-0.015625 0.1230469-0.015625v0.9980469h6v-0.9980469c0.593 0 1.005625 0.0631562 1.265625 0.1601562 0.26 0.0980001 0.371656 0.2027188 0.472656 0.3867188 0.202 0.366 0.246719 1.194125 0.261719 2.453125v2.8320312c0.31 0.1150001 0.581953 0.3221407 0.751953 0.6191407v0.0019531l0.248047 0.4375v-3.8964844c-0.015-1.258 0.031234-2.1786406-0.384766-2.9316406a1.88 1.88 0 0 0-0.998046-0.8378906c-0.438001-0.165-0.960188-0.2246094-1.617188-0.2246094h-1.0039062a2.008 2.008 0 0 0-1.9921876-2h-0.0117187zm0.0097656 1h0.0019531c0.5580628 0.0010404 0.9980469 0.4426578 0.9980469 1a0.99 0.99 0 0 1-1 1 0.982 0.982 0 0 1-0.921875-0.609375 1.01 1.01 0 0 1-0.0761719-0.390625c0-0.5573435 0.4399824-0.9989617 0.9980469-1z" style="fill:#808080"/>
  <path d="m1184.12-183.98437v-0.99805c0.5881 9e-3 1.0886 0.0546 1.4941 0.20703 0.439 0.164 0.7901 0.46089 0.9981 0.83789 0.415 0.752 0.3698 1.67364 0.3848 2.93164v5.01172c-0.015 1.258 0.03 2.17864-0.3848 2.93164-0.208 0.376-0.5601 0.67289-0.9981 0.83789-0.4055 0.15152-0.906 0.19836-1.4941 0.20703v-0.99804c0.5034-0.0108 0.9088-0.057 1.1426-0.14454 0.26-0.098 0.3716-0.20271 0.4726-0.38671 0.202-0.366 0.2468-1.19413 0.2618-2.45313v-5c-0.015-1.259-0.06-2.08712-0.2618-2.45312-0.101-0.184-0.2126-0.28972-0.4726-0.38672-0.2347-0.0885-0.6394-0.13387-1.1426-0.14453z" style="fill:#808080"/>
 </g>
</svg>

<?xml version="1.0" encoding="UTF-8" standalone="no"?>
<svg
   xmlns:dc="http://purl.org/dc/elements/1.1/"
   xmlns:cc="http://creativecommons.org/ns#"
   xmlns:rdf="http://www.w3.org/1999/02/22-rdf-syntax-ns#"
   xmlns:svg="http://www.w3.org/2000/svg"
   xmlns="http://www.w3.org/2000/svg"
   xmlns:sodipodi="http://sodipodi.sourceforge.net/DTD/sodipodi-0.dtd"
   xmlns:inkscape="http://www.inkscape.org/namespaces/inkscape"
   height="16"
   width="16"
   version="1.1"
   id="svg8"
   sodipodi:docname="task-due-symbolic.svg"
   inkscape:version="0.92.2 (unknown)">
  <metadata
     id="metadata14">
    <rdf:RDF>
      <cc:Work
         rdf:about="">
        <dc:format>image/svg+xml</dc:format>
        <dc:type
           rdf:resource="http://purl.org/dc/dcmitype/StillImage" />
        <dc:title></dc:title>
      </cc:Work>
    </rdf:RDF>
  </metadata>
  <defs
     id="defs12" />
  <sodipodi:namedview
     pagecolor="#ffffff"
     bordercolor="#666666"
     borderopacity="1"
     objecttolerance="10"
     gridtolerance="10"
     guidetolerance="10"
     inkscape:pageopacity="0"
     inkscape:pageshadow="2"
     inkscape:window-width="1920"
     inkscape:window-height="1013"
     id="namedview10"
     showgrid="false"
     inkscape:zoom="51.875"
     inkscape:cx="8"
     inkscape:cy="8"
     inkscape:window-x="0"
     inkscape:window-y="34"
     inkscape:window-maximized="1"
     inkscape:current-layer="g6" />
  <g
     transform="translate(-1173 187)"
     id="g6">
    <path
       style="line-height:normal;text-indent:0;text-align:start;text-decoration-line:none;text-decoration-style:solid;text-decoration-color:#000;text-transform:none;isolation:auto;mix-blend-mode:normal;marker:none;fill:#808080;fill-opacity:1"
       d="M 4.9902344 10 L 4.9902344 11 L 7.9902344 11 L 7.9902344 10 L 4.9902344 10 z "
       id="path832"
       transform="translate(1173,-187)" />
    <path
       style="line-height:normal;text-indent:0;text-align:start;text-decoration-line:none;text-decoration-style:solid;text-decoration-color:#000;text-transform:none;isolation:auto;mix-blend-mode:normal;marker:none;fill:#808080;fill-opacity:1"
       d="M 5 8 L 5 9 L 11.011719 9 L 11.011719 8 L 5 8 z "
       id="path830"
       transform="translate(1173,-187)" />
    <path
       style="line-height:normal;text-indent:0;text-align:start;text-decoration-line:none;text-decoration-style:solid;text-decoration-color:#000;text-transform:none;isolation:auto;mix-blend-mode:normal;marker:none;fill:#808080;fill-opacity:1"
       d="M 5 6 L 5 7 L 11.011719 7 L 11.011719 6 L 5 6 z "
       id="path828"
       transform="translate(1173,-187)" />
    <path
       style="line-height:normal;text-indent:0;text-align:start;text-decoration:none;text-decoration-line:none;text-decoration-style:solid;text-decoration-color:#000000;text-transform:none;isolation:auto;mix-blend-mode:normal;marker:none;fill:#808080;fill-opacity:1"
       d="m 4.8769531,13.984375 v 0.998047 C 4.9254167,14.983137 4.949984,15.000144 5,15 l 6.12,-0.01758 V 13.98438 L 5,14 c -0.057558,1.47e-4 -0.068832,-0.01446 -0.1230469,-0.01563 z"
       id="path826"
       transform="translate(1173,-187)"
       inkscape:connector-curvature="0"
       sodipodi:nodetypes="ccsccsc" />
    <path
       style="line-height:normal;text-indent:0;text-align:start;text-decoration-line:none;text-decoration-style:solid;text-decoration-color:#000;text-transform:none;isolation:auto;mix-blend-mode:normal;marker:none;fill:#808080;fill-opacity:1"
       d="M 4.8769531 3.015625 L 4.8769531 2.0175781 C 4.2888106 2.026259 3.7883923 2.0721705 3.3828125 2.2246094 C 2.9438125 2.3886094 2.5927656 2.6855 2.3847656 3.0625 C 1.9697656 3.8145 2.015 4.7361406 2 5.9941406 L 2 11.005859 C 2.015 12.263859 1.9697656 13.1845 2.3847656 13.9375 C 2.5927656 14.3135 2.9448125 14.610391 3.3828125 14.775391 C 3.7883923 14.926906 4.2888106 14.973746 4.8769531 14.982422 L 4.8769531 13.984375 C 4.3735632 13.973563 3.9681931 13.927413 3.734375 13.839844 C 3.474375 13.741844 3.3627187 13.637125 3.2617188 13.453125 C 3.0597188 13.087125 3.015 12.259 3 11 L 3 6 C 3.015 4.741 3.0597188 3.912875 3.2617188 3.546875 C 3.3627188 3.362875 3.474375 3.2571563 3.734375 3.1601562 C 3.9690958 3.0716846 4.3737132 3.0262871 4.8769531 3.015625 z "
       id="path824"
       transform="translate(1173,-187)" />
    <path
       style="line-height:normal;text-indent:0;text-align:start;text-decoration-line:none;text-decoration-style:solid;text-decoration-color:#000;text-transform:none;isolation:auto;mix-blend-mode:normal;marker:none;fill:#808080;fill-opacity:1"
       d="M 7.9921875 0 A 2.008 2.008 0 0 0 6 2 L 5 2 C 4.9499838 2 4.9254167 2.0168628 4.8769531 2.0175781 L 4.8769531 3.015625 C 4.9311515 3.0144767 4.9424413 3 5 3 L 5 3.9980469 L 11 3.9980469 L 11 3 C 11.593 3 12.005625 3.0631562 12.265625 3.1601562 C 12.525625 3.2581563 12.637281 3.362875 12.738281 3.546875 C 12.940281 3.912875 12.985 4.741 13 6 L 13 8.8320312 C 13.31 8.9470313 13.581953 9.1541719 13.751953 9.4511719 L 13.751953 9.453125 L 14 9.890625 L 14 5.9941406 C 13.985 4.7361406 14.031234 3.8155 13.615234 3.0625 A 1.88 1.88 0 0 0 12.617188 2.2246094 C 12.179187 2.0596094 11.657 2 11 2 L 9.9960938 2 A 2.008 2.008 0 0 0 8.0039062 0 L 7.9921875 0 z M 8.0019531 1 L 8.0039062 1 C 8.561969 1.0010404 9.0019531 1.4426578 9.0019531 2 A 0.99 0.99 0 0 1 8.0019531 3 A 0.982 0.982 0 0 1 7.0800781 2.390625 A 1.01 1.01 0 0 1 7.0039062 2 C 7.0039062 1.4426565 7.4438886 1.0010383 8.0019531 1 z "
       id="path2"
       transform="translate(1173,-187)" />
    <path
       id="path834"
       d="m 1184.12,-183.98437 v -0.99805 c 0.5881,0.009 1.0886,0.0546 1.4941,0.20703 0.439,0.164 0.7901,0.46089 0.9981,0.83789 0.415,0.752 0.3698,1.67364 0.3848,2.93164 v 5.01172 c -0.015,1.258 0.03,2.17864 -0.3848,2.93164 -0.208,0.376 -0.5601,0.67289 -0.9981,0.83789 -0.4055,0.15152 -0.906,0.19836 -1.4941,0.20703 v -0.99804 c 0.5034,-0.0108 0.9088,-0.057 1.1426,-0.14454 0.26,-0.098 0.3716,-0.20271 0.4726,-0.38671 0.202,-0.366 0.2468,-1.19413 0.2618,-2.45313 v -5 c -0.015,-1.259 -0.06,-2.08712 -0.2618,-2.45312 -0.101,-0.184 -0.2126,-0.28972 -0.4726,-0.38672 -0.2347,-0.0885 -0.6394,-0.13387 -1.1426,-0.14453 z"
       style="line-height:normal;text-indent:0;text-align:start;text-decoration:none;text-decoration-line:none;text-decoration-style:solid;text-decoration-color:#000000;text-transform:none;isolation:auto;mix-blend-mode:normal;marker:none;fill:#808080;fill-opacity:1"
       inkscape:connector-curvature="0" />
  </g>
</svg>
